Numix-GalliumOS/22/mimetypes/text-x-c.svg

<?xml version="1.0" encoding="UTF-8" standalone="no"?>
<svg
   xmlns:dc="http://purl.org/dc/elements/1.1/"
   xmlns:cc="http://creativecommons.org/ns#"
   xmlns:rdf="http://www.w3.org/1999/02/22-rdf-syntax-ns#"
   xmlns:svg="http://www.w3.org/2000/svg"
   xmlns="http://www.w3.org/2000/svg"
   xmlns:sodipodi="http://sodipodi.sourceforge.net/DTD/sodipodi-0.dtd"
   xmlns:inkscape="http://www.inkscape.org/namespaces/inkscape"
   width="22"
   height="22"
   viewBox="0 0 22 22"
   id="svg2"
   version="1.1"
   inkscape:version="0.48.5 r10040"
   sodipodi:docname="text-x-c.svg">
  <metadata
     id="metadata16">
    <rdf:RDF>
      <cc:Work
         rdf:about="">
        <dc:format>image/svg+xml</dc:format>
        <dc:type
           rdf:resource="http://purl.org/dc/dcmitype/StillImage" />
      </cc:Work>
    </rdf:RDF>
  </metadata>
  <defs
     id="defs14" />
  <sodipodi:namedview
     pagecolor="#ffffff"
     bordercolor="#666666"
     borderopacity="1"
     objecttolerance="10"
     gridtolerance="10"
     guidetolerance="10"
     inkscape:pageopacity="0"
     inkscape:pageshadow="2"
     inkscape:window-width="1280"
     inkscape:window-height="970"
     id="namedview12"
     showgrid="true"
     inkscape:zoom="14.75"
     inkscape:cx="8.2279132"
     inkscape:cy="11.591792"
     inkscape:window-x="0"
     inkscape:window-y="0"
     inkscape:window-maximized="1"
     inkscape:current-layer="svg2">
    <inkscape:grid
       type="xygrid"
       id="grid3004"
       empspacing="5"
       visible="true"
       enabled="true"
       snapvisiblegridlinesonly="true" />
  </sodipodi:namedview>
  <path
     style="fill:#2d2d2d;fill-opacity:1"
     d="M 4,0 C 3.527343,0 3,0.527344 3,1 l 0,20 c 0,0.445312 0.554687,1 1,1 l 14,0 c 0.445313,0 0.992367,-0.554753 1,-1 L 19,6 13,0 z"
     id="path4"
     inkscape:connector-curvature="0"
     sodipodi:nodetypes="ssssssccs" />
  <path
     style="fill:#000000;fill-opacity:0.19599998"
     d="m 14,6 5,5 0,-5 z"
     id="path6"
     inkscape:connector-curvature="0"
     sodipodi:nodetypes="cccc" />
  <path
     style="fill:#ffffff;fill-opacity:0.39200003"
     d="m 13,0 6,6 -5,0 C 13.554688,6 13,5.445312 13,5 z"
     id="path8"
     inkscape:connector-curvature="0"
     sodipodi:nodetypes="ccssc" />
  <path
     style="fill:#dcdcdc"
     d="m 6.1876083,12.750924 c 0,-0.595806 0.1197826,-1.184346 0.3593443,-1.765622 C 6.7865143,10.39676 7.1317675,9.8736135 7.5756615,9.4158585 8.0336502,8.9581035 8.5902795,8.587539 9.2385094,8.2969023 9.8937831,8.013531 10.640654,7.875478 11.479123,7.875478 c 0.986435,0 1.838994,0.1961809 2.557684,0.5885413 0.725734,0.3996271 1.261225,0.9082419 1.59943,1.5476447 l -1.648753,1.002702 C 13.860657,10.738258 13.705645,10.505748 13.508359,10.3241 13.311072,10.135185 13.092647,9.9826012 12.853086,9.8736135 12.62057,9.7573605 12.388051,9.6846979 12.134397,9.6338353 c -0.246607,-0.05086 -0.486171,-0.079926 -0.711642,-0.079926 -0.514354,0 -0.95825,0.09446 -1.338731,0.2906367 C 9.6964962,10.033461 9.3723812,10.28777 9.1187267,10.600204 8.8650723,10.905375 8.6748328,11.25414 8.5409591,11.6465 c -0.1268279,0.385097 -0.1902412,0.77019 -0.1902412,1.162551 0,0.428691 0.077505,0.842851 0.2184251,1.249744 0.1550101,0.39236 0.3734352,0.748391 0.6411808,1.046296 0.2818383,0.305169 0.6129988,0.544944 0.9934812,0.73386 0.387528,0.181647 0.803238,0.276104 1.261225,0.276104 0.239564,0 0.486173,-0.02907 0.73278,-0.08719 0.246609,-0.05086 0.486173,-0.138053 0.718689,-0.261573 0.239561,-0.116253 0.457986,-0.26884 0.655273,-0.450488 0.197287,-0.196181 0.352299,-0.421426 0.479125,-0.690265 l 1.76149,0.893711 c -0.169102,0.370557 -0.415711,0.697525 -0.732779,0.980898 -0.310022,0.276105 -0.669367,0.508615 -1.078033,0.69753 -0.401619,0.19618 -0.824376,0.341498 -1.275317,0.443222 -0.443895,0.10172 -0.887791,0.152585 -1.324641,0.152585 -0.768009,0 -1.4726046,-0.145318 -2.1137872,-0.443222 C 8.6536945,17.059631 8.1041089,16.674536 7.6390766,16.209515 7.1810879,15.729963 6.8217454,15.192282 6.5610436,14.596475 6.3144364,13.993402 6.1876083,13.375796 6.1876083,12.750924"
     id="path10"
     inkscape:connector-curvature="0" />
</svg>

<svg xmlns="http://www.w3.org/2000/svg" viewBox="0 0 22 22">
 <path d="m 4 0 c -0.473 0 -1 0.527 -1 1 l 0 20 c 0 0.445 0.555 1 1 1 l 14 0 c 0.445 0 0.992 -0.555 1 -1 l 0 -15 -6 -6 z" style="fill:#2d2d2d;fill-opacity:1"/>
 <path d="m 14 6 5 5 0 -5 z" style="fill:#000;fill-opacity:0.196"/>
 <path d="m 13 0 6 6 -5 0 c -0.445 0 -1 -0.555 -1 -1 z" style="fill:#fff;fill-opacity:0.392"/>
 <path d="m 6.188 12.751 c 0 -0.596 0.12 -1.184 0.359 -1.766 c 0.24 -0.589 0.585 -1.112 1.029 -1.569 0.458 -0.458 1.015 -0.828 1.663 -1.119 0.655 -0.283 1.402 -0.421 2.241 -0.421 c 0.986 0 1.839 0.196 2.558 0.589 0.726 0.4 1.261 0.908 1.599 1.548 l -1.649 1 c -0.127 -0.276 -0.282 -0.509 -0.479 -0.69 -0.197 -0.189 -0.416 -0.341 -0.655 -0.45 -0.233 -0.116 -0.465 -0.189 -0.719 -0.24 c -0.247 -0.051 -0.486 -0.08 -0.712 -0.08 -0.514 0 -0.958 0.094 -1.339 0.291 c -0.388 0.189 -0.712 0.443 -0.965 0.756 -0.254 0.305 -0.444 0.654 -0.578 1.046 c -0.127 0.385 -0.19 0.77 -0.19 1.163 0 0.429 0.078 0.843 0.218 1.25 0.155 0.392 0.373 0.748 0.641 1.046 0.282 0.305 0.613 0.545 0.993 0.734 0.388 0.182 0.803 0.276 1.261 0.276 0.24 0 0.486 -0.029 0.733 -0.087 0.247 -0.051 0.486 -0.138 0.719 -0.262 0.24 -0.116 0.458 -0.269 0.655 -0.45 0.197 -0.196 0.352 -0.421 0.479 -0.69 l 1.761 0.894 c -0.169 0.371 -0.416 0.698 -0.733 0.981 -0.31 0.276 -0.669 0.509 -1.078 0.698 -0.402 0.196 -0.824 0.341 -1.275 0.443 -0.444 0.102 -0.888 0.153 -1.325 0.153 -0.768 0 -1.473 -0.145 -2.114 -0.443 c -0.634 -0.291 -1.184 -0.676 -1.649 -1.141 -0.458 -0.48 -0.817 -1.017 -1.078 -1.613 -0.247 -0.603 -0.373 -1.221 -0.373 -1.846" style="fill:#dcdcdc"/>
</svg>
